!!!COM:	Bach, Johann Sebastian
!!!OMV:	Es ist gewi&szlig;lich an der Zeit
!!!OTL:	Es ist gewi&szlig;lich an der Zeit
**kern	**fb	**kern	**kern	**kern	**kern
*part5	*part5	*part4	*part3	*part2	*part1
*staff5	*	*staff4	*staff3	*staff2	*staff1
*I"Contrabass	*	*I"Voice	*I"Voice	*I"Voice	*I"Voice
*I'Cb.	*	*I'V	*I'V	*I'V	*I'V
*clefF4	*	*clefF4	*clefGv2	*clefG2	*clefG2
*Trd0c0	*	*	*	*	*
*k[f#]	*	*k[f#]	*k[f#]	*k[f#]	*k[f#]
*M4/4	*	*M4/4	*M4/4	*M4/4	*M4/4
8GL	.	8GL	4B	4d	4g
8F#J	.	8F#J	.	.	.
=2	=2	=2	=2	=2	=2
8EL	.	4.E	4B	8eL	8gL
8EE	.	.	.	8f#J	8aJ
8E	.	.	4e	4g	4b
8DJ	.	8D	.	.	.
8CL	6 5	4.C	8eL	8gL	4a
8CC	4 2	.	8dJ	8f#J	.
8C	5	.	4d	4g	4g
8BBJ	.	8BB	.	.	.
=3	=3	=3	=3	=3	=3
8CL	6 5	8CL	8eL	4g	4a
8AA	.	8AAJ	8cJ	.	.
8D	.	4D	8AL	4f#	4a
8DDJ	.	.	8dJ	.	.
4GG;	.	4GG;	4d;	4g;	4b;
4C	5 3	4C	4e	8eL	8gL
.	6 4	.	.	8f#J	8aJ
=4	=4	=4	=4	=4	=4
8GL	.	8GL	4d	8g	4b
8F#	.	8F#J	.	4b	.
8E	6 5	4E	8GL	.	4cc
8EEJ	4	.	8AJ	16aLL	.
.	3	.	.	16gJJ	.
8BBL	5	8BL	8BL	4f#	4dd
8AA	.	8AJ	8cJ	.	.
8GG	.	4G	4d	4g	8ccL
8BBJ	6	.	.	.	8bJ
=	=	=	=	=	=
4D	4	4d	4d	4g	8aL
.	.	.	.	.	8gJ
4DD	3	4D	8cL	4f#	4a
.	.	.	8BJ	.	.
4GG;	.	4G;	4B;	4d;	4g;
=5:|!	=5:|!	=5:|!	=5:|!	=5:|!	=5:|!
8GGL	.	8GL	4d	4g	4b
8AAJ	.	8AJ	.	.	.
=6	=6	=6	=6	=6	=6
!!linebreak:original
8BBL	.	8BL	4d	4.g	4b
8C	.	8cJ	.	.	.
8D	4	4d	8dL	.	4a
8DDJ	3	.	8cJ	8f#	.
8GGL	7	8GL	8BL	8f#L	4g
8AA	7 5	8AJ	8cJ	8eJ	.
8BB	4	4B	8F#L	8eL	4f#
8BJ	#	.	8BJ	8d#XJ	.
=7	=7	=7	=7	=7	=7
8EL	.	8EL	8BL	4e	8gL
8F#	7	8F#J	8AJ	.	8aJ
8G	.	4G	8AL	4dn	4b
8GGJ	.	.	8GJ	.	.
4D;	.	4D;	4F#;	4d;	4a;
8DL	.	8dL	4F#	4d	4a
8CJ	.	8cJ	.	.	.
=8	=8	=8	=8	=8	=8
8BBL	6_	4.B	8GL	8dL	4g
8B	.	.	8AJ	8cJ	.
8BB	5	.	8BL	4d	4f#
8AAJ	.	8A	8cJ	.	.
8GGL	.	4.G	8BL	8dL	4g
8G	.	.	8AJ	8cJ	.
8GG	.	.	4G	4B	4d
8FF#J	.	8F#	.	.	.
=9	=9	=9	=9	=9	=9
8EEL	.	8EL	4G	4B	4g
8DD	.	8DJ	.	.	.
8CC	6_	4C	8F#L	4e	4a
8CJ	.	.	8EJ	.	.
4BB;	#	4BB;	4F#;	4d#X;	4b;
4EE	5 3	4E	8EL	4B	8gL
.	6 4	.	8F#J	.	8aJ
=10	=10	=10	=10	=10	=10
!!pagebreak:original
8EL	.	8EL	4.G	4e	4b
8D	.	8DnJ	.	.	.
8C	5	4C	.	4e	4cc
8cJ	6	.	8A	.	.
8BL	6	8BBL	8BL	8dn	4dd
8A	.	8AAJ	8cJ	16eLL	.
.	.	.	.	16f#JJ	.
8G	.	4GG	4d	4g	8ccL
8GGJ	.	.	.	.	8bJ
=11	=11	=11	=11	=11	=11
4D	.	2D	4d	4g	8aL
.	.	.	.	.	8gJ
4DD	.	.	8cL	4f#	4a
.	.	.	8BJ	.	.
4GG;	.	4GG;	4B;	4d;	4g;
=||	=||	=||	=||	=||	=||
*-	*-	*-	*-	*-	*-
!!!system-decoration: s1,s2,s3,s4,s5
